X: 334
T: A Redbreast's Tweet
R: reel
M: 4/4
K: Eminor
GA|:"Em"B2AG B2AG|"D"FAEAD2EF|"Em"G2dedBAG|"D"A2dedefg|
"Em"B2AG B2AG|"D"dAeAf2af|"Em"e2 f/e/ d "D"e2f/e/ d|"Em"B6Bd:|
|:"Em"e2 f/e/d e2f/e/d|"G"BdAdG2 Bd|"C"e2 f/e/d e2f/e/d|"G"B4 "D"A2 Bd|
"Em"e2 f/e/d e2f/e/d|"C"eBfBg2af|"Em"e2 f/e/ d "D"e2f/e/ d|1 "Em"B6Bd:|2 "Em"e8||

